!!!OTL: Vater unser
!!!ARE: Europa, Mitteleuropa, Deutschland
!!!SCT: A0630B
!!!YEM: Copyright 1995, estate of Helmut Schaffrath.
**kern
*ICvox
*Ivox
*M3/2
*k[b-]
*d:
{2a
=1
1a
2fn
=2
1g
2a
=3
1fn
2e
=4
1d}
{2a
=5
1a
2g
=6
1ccn
2a
=7
1fn
2g
=8
1a}
{2a
=9
1cc#
2dd
=10
1ffn
2ee
=11
1dd
2cc#
=12
1dd}
{2dd
=13
2ee
2ee
2dd
=14
1ccn
2b-
=15
1a
2g
=16
1a}
{2dd
=17
1ccn
2b
=18
1ccn
2a
=19
1a
2g
=20
1fn}
{2a
=21
1b-
2a
=22
1fn
2g
=23
1fn
2e
=24
1d}
==
!!!AGN: Romanze, Ballade, Lied
!! Babsts Gsgb 1545 II No. 26
!!!ONB: ESAC (Essen Associative Code) Database: ALTDEU
!!!AMT: simple triple
!!!AIN: vox
!!!EED: Helmut Schaffrath
!!!EEV: 1.0
*-
